dist/img/icons/Wanted.svg

<svg width="124" height="23" viewBox="0 0 124 23" fill="none" xmlns="http://www.w3.org/2000/svg">
<path d="M9.8125 22.5156H8.17188L0 0.109375H4.84375L9.8125 13.7344V22.5156ZM21.5625 13.9219L26.5781 0.15625H31.4219L27.3438 11.3438L23.2656 22.5312H21.5625V13.9219ZM18.1406 6.96875L20.6094 13.7344V22.5156H18.9688L15.7188 13.6094L12.4688 22.5312H10.7656V13.9219L13.2969 6.96875H18.1406Z" fill="black"/>
<path d="M41.0938 0.109375L49.0156 22.5156H43.2344L41.7344 17.75H35.5312L36.7344 13.6094H40.5469V13.5312L38.2344 5.28125H38.1562L33.3125 22.5156H28.7812V19.2656L35.2969 0.109375H41.0938Z" fill="black"/>
<path d="M55.125 22.5156H50.0312V1.45312L55.125 9.95312V22.5156ZM63.4062 22.5L50.0938 0.125H54.9375L68.2656 22.5156L63.4062 22.5ZM63.2031 0.109375H68.2969V21.1719L63.2031 12.6719V0.109375Z" fill="black"/>
<path d="M80.9062 22.4688H75.8125V5.10938H80.9062V22.4688ZM86.5781 0.15625V4.28125H69.8906V0.15625H86.5781Z" fill="black"/>
<path d="M93.3438 22.5156H88.25V0.0625H93.3438V22.5156ZM104.719 0.109375V4.23438H94.2188V0.109375H104.719ZM103.891 8.59375V12.7188H94.25V8.59375H103.891ZM104.766 18.3594V22.4844H94.2656V18.3594H104.766Z" fill="black"/>
<path d="M111.375 22.5156H106.281V0.0625H111.375V22.5156ZM118.656 6.85938C118.302 5.10938 117.344 4.21875 115.781 4.1875L112.188 4.14062V0H115.781C118.792 0 120.974 0.848958 122.328 2.54688C123.286 4.00521 123.766 5.52604 123.766 7.10938V15.3906C123.766 16.974 123.286 18.4948 122.328 19.9531C120.974 21.651 118.792 22.5 115.781 22.5H112.188V18.3594L115.781 18.3125C117.344 18.2812 118.302 17.3906 118.656 15.6406V6.85938Z" fill="black"/>
</svg>

<svg width="124" height="23" viewBox="0 0 124 23" fill="none" xmlns="http://www.w3.org/2000/svg"><path d="M9.813 22.516H8.171L0 .109h4.844l4.968 13.625v8.782zm11.75-8.594L26.578.156h4.844l-4.078 11.188-4.078 11.187h-1.703v-8.61zM18.14 6.969l2.468 6.765v8.782h-1.64l-3.25-8.907-3.25 8.922h-1.703v-8.61l2.53-6.952h4.845zM41.094.11l7.922 22.406h-5.782l-1.5-4.766h-6.203l1.203-4.14h3.813v-.079l-2.313-8.25h-.078l-4.843 17.235H28.78v-3.25L35.297.109h5.797zm14.031 22.406h-5.094V1.453l5.094 8.5v12.563zm8.281-.016L50.094.125h4.843l13.329 22.39-4.86-.015zM63.203.11h5.094v21.062l-5.094-8.5V.109zm17.703 22.359h-5.094V5.109h5.094v17.36zM86.578.156v4.125H69.891V.156h16.687zm6.766 22.36H88.25V.063h5.094v22.453zM104.719.109v4.125h-10.5V.11h10.5zm-.828 8.485v4.125H94.25V8.594h9.641zm.875 9.765v4.125h-10.5V18.36h10.5zm6.609 4.157h-5.094V.063h5.094v22.453zm7.281-15.657c-.354-1.75-1.312-2.64-2.875-2.671l-3.593-.047V0h3.593c3.011 0 5.193.849 6.547 2.547.958 1.458 1.438 2.979 1.438 4.562v8.282c0 1.583-.48 3.104-1.438 4.562-1.354 1.698-3.536 2.547-6.547 2.547h-3.593v-4.14l3.593-.047c1.563-.032 2.521-.922 2.875-2.672V6.859z" fill="#000"/></svg>
